images/6605122.svg

<?xml version="1.0" encoding="UTF-8"?>
<svg xmlns="http://www.w3.org/2000/svg" xmlns:xlink="http://www.w3.org/1999/xlink" width="300pt" height="300pt" viewBox="0 0 300 300" version="1.1">
<defs>
<g>
<symbol overflow="visible" id="glyph0-0">
<path style="stroke:none;" d="M 0.453125 1.59375 L 0.453125 -6.34375 L 4.953125 -6.34375 L 4.953125 1.59375 Z M 0.953125 1.09375 L 4.453125 1.09375 L 4.453125 -5.84375 L 0.953125 -5.84375 Z M 0.953125 1.09375 "/>
</symbol>
<symbol overflow="visible" id="glyph0-1">
<path style="stroke:none;" d="M 0.890625 -6.5625 L 2.078125 -6.5625 L 4.984375 -1.078125 L 4.984375 -6.5625 L 5.84375 -6.5625 L 5.84375 0 L 4.65625 0 L 1.75 -5.484375 L 1.75 0 L 0.890625 0 Z M 0.890625 -6.5625 "/>
</symbol>
<symbol overflow="visible" id="glyph0-2">
<path style="stroke:none;" d="M 3.546875 -5.953125 C 2.898438 -5.953125 2.382812 -5.710938 2 -5.234375 C 1.625 -4.753906 1.4375 -4.101562 1.4375 -3.28125 C 1.4375 -2.445312 1.625 -1.789062 2 -1.3125 C 2.382812 -0.832031 2.898438 -0.59375 3.546875 -0.59375 C 4.191406 -0.59375 4.703125 -0.832031 5.078125 -1.3125 C 5.453125 -1.789062 5.640625 -2.445312 5.640625 -3.28125 C 5.640625 -4.101562 5.453125 -4.753906 5.078125 -5.234375 C 4.703125 -5.710938 4.191406 -5.953125 3.546875 -5.953125 Z M 3.546875 -6.6875 C 4.460938 -6.6875 5.195312 -6.375 5.75 -5.75 C 6.300781 -5.132812 6.578125 -4.3125 6.578125 -3.28125 C 6.578125 -2.238281 6.300781 -1.410156 5.75 -0.796875 C 5.195312 -0.179688 4.460938 0.125 3.546875 0.125 C 2.617188 0.125 1.878906 -0.179688 1.328125 -0.796875 C 0.773438 -1.410156 0.5 -2.238281 0.5 -3.28125 C 0.5 -4.3125 0.773438 -5.132812 1.328125 -5.75 C 1.878906 -6.375 2.617188 -6.6875 3.546875 -6.6875 Z M 3.546875 -6.6875 "/>
</symbol>
</g>
</defs>
<g id="surface35369">
<rect x="0" y="0" width="300" height="300" style="fill:rgb(100%,100%,100%);fill-opacity:1;stroke:none;"/>
<path style="fill:none;stroke-width:1.2;stroke-linecap:butt;stroke-linejoin:miter;stroke:rgb(0%,0%,0%);stroke-opacity:1;stroke-miterlimit:10;" d="M 167.8125 237.171875 L 170.328125 212.09375 "/>
<path style="fill:none;stroke-width:1.2;stroke-linecap:butt;stroke-linejoin:miter;stroke:rgb(0%,0%,0%);stroke-opacity:1;stroke-miterlimit:10;" d="M 170.328125 212.09375 L 160.097656 204.734375 "/>
<path style="fill:none;stroke-width:1.2;stroke-linecap:butt;stroke-linejoin:miter;stroke:rgb(0%,0%,100%);stroke-opacity:1;stroke-miterlimit:10;" d="M 160.097656 204.734375 L 149.867188 197.375 "/>
<path style="fill:none;stroke-width:1.2;stroke-linecap:butt;stroke-linejoin:miter;stroke:rgb(0%,0%,0%);stroke-opacity:1;stroke-miterlimit:10;" d="M 171.746094 205.804688 L 163.5625 199.917969 "/>
<path style="fill:none;stroke-width:1.2;stroke-linecap:butt;stroke-linejoin:miter;stroke:rgb(0%,0%,100%);stroke-opacity:1;stroke-miterlimit:10;" d="M 163.5625 199.917969 L 155.378906 194.03125 "/>
<path style="fill:none;stroke-width:1.2;stroke-linecap:butt;stroke-linejoin:miter;stroke:rgb(0%,0%,100%);stroke-opacity:1;stroke-miterlimit:10;" d="M 193.304688 201.730469 L 181.816406 206.910156 "/>
<path style="fill:none;stroke-width:1.2;stroke-linecap:butt;stroke-linejoin:miter;stroke:rgb(0%,0%,0%);stroke-opacity:1;stroke-miterlimit:10;" d="M 181.816406 206.910156 L 170.328125 212.09375 "/>
<path style="fill:none;stroke-width:1.2;stroke-linecap:butt;stroke-linejoin:miter;stroke:rgb(0%,0%,100%);stroke-opacity:1;stroke-miterlimit:10;" d="M 149.867188 197.375 L 151.125 184.835938 "/>
<path style="fill:none;stroke-width:1.2;stroke-linecap:butt;stroke-linejoin:miter;stroke:rgb(0%,0%,0%);stroke-opacity:1;stroke-miterlimit:10;" d="M 151.125 184.835938 L 152.382812 172.296875 "/>
<path style=" stroke:none;fill-rule:nonzero;fill:rgb(100%,100%,100%);fill-opacity:1;" d="M 146.867188 191.875 L 153.867188 191.875 L 153.867188 202.875 L 146.867188 202.875 Z M 146.867188 191.875 "/>
<g style="fill:rgb(0%,0%,100%);fill-opacity:1;">
  <use xlink:href="#glyph0-1" x="146.867188" y="200.538086"/>
</g>
<path style="fill:none;stroke-width:1.2;stroke-linecap:butt;stroke-linejoin:miter;stroke:rgb(0%,0%,0%);stroke-opacity:1;stroke-miterlimit:10;" d="M 152.382812 172.296875 L 175.359375 161.933594 "/>
<path style="fill:none;stroke-width:1.2;stroke-linecap:butt;stroke-linejoin:miter;stroke:rgb(0%,0%,0%);stroke-opacity:1;stroke-miterlimit:10;" d="M 152.242188 165.855469 L 170.625 157.566406 "/>
<path style="fill:none;stroke-width:1.2;stroke-linecap:butt;stroke-linejoin:miter;stroke:rgb(0%,0%,100%);stroke-opacity:1;stroke-miterlimit:10;" d="M 135.429688 153.644531 L 143.90625 162.972656 "/>
<path style="fill:none;stroke-width:1.2;stroke-linecap:butt;stroke-linejoin:miter;stroke:rgb(0%,0%,0%);stroke-opacity:1;stroke-miterlimit:10;" d="M 143.90625 162.972656 L 152.382812 172.296875 "/>
<path style="fill:none;stroke-width:1.2;stroke-linecap:butt;stroke-linejoin:miter;stroke:rgb(0%,0%,0%);stroke-opacity:1;stroke-miterlimit:10;" d="M 175.359375 161.933594 L 195.820312 176.652344 "/>
<path style="fill:none;stroke-width:1.2;stroke-linecap:butt;stroke-linejoin:miter;stroke:rgb(0%,0%,0%);stroke-opacity:1;stroke-miterlimit:10;" d="M 175.359375 161.933594 L 173.984375 149.40625 "/>
<path style="fill:none;stroke-width:1.2;stroke-linecap:butt;stroke-linejoin:miter;stroke:rgb(0%,0%,100%);stroke-opacity:1;stroke-miterlimit:10;" d="M 173.984375 149.40625 L 172.605469 136.882812 "/>
<path style="fill:none;stroke-width:1.2;stroke-linecap:butt;stroke-linejoin:miter;stroke:rgb(0%,0%,0%);stroke-opacity:1;stroke-miterlimit:10;" d="M 195.820312 176.652344 L 194.5625 189.191406 "/>
<path style="fill:none;stroke-width:1.2;stroke-linecap:butt;stroke-linejoin:miter;stroke:rgb(0%,0%,100%);stroke-opacity:1;stroke-miterlimit:10;" d="M 194.5625 189.191406 L 193.304688 201.730469 "/>
<path style="fill:none;stroke-width:1.2;stroke-linecap:butt;stroke-linejoin:miter;stroke:rgb(0%,0%,0%);stroke-opacity:1;stroke-miterlimit:10;" d="M 189.667969 178.570312 L 188.664062 188.601562 "/>
<path style="fill:none;stroke-width:1.2;stroke-linecap:butt;stroke-linejoin:miter;stroke:rgb(0%,0%,100%);stroke-opacity:1;stroke-miterlimit:10;" d="M 188.664062 188.601562 L 187.65625 198.632812 "/>
<path style="fill:none;stroke-width:1.2;stroke-linecap:butt;stroke-linejoin:miter;stroke:rgb(0%,0%,0%);stroke-opacity:1;stroke-miterlimit:10;" d="M 195.820312 176.652344 L 207.308594 171.472656 "/>
<path style="fill:none;stroke-width:1.2;stroke-linecap:butt;stroke-linejoin:miter;stroke:rgb(0%,0%,100%);stroke-opacity:1;stroke-miterlimit:10;" d="M 207.308594 171.472656 L 218.796875 166.292969 "/>
<path style=" stroke:none;fill-rule:nonzero;fill:rgb(100%,100%,100%);fill-opacity:1;" d="M 190.304688 196.230469 L 197.304688 196.230469 L 197.304688 207.230469 L 190.304688 207.230469 Z M 190.304688 196.230469 "/>
<g style="fill:rgb(0%,0%,100%);fill-opacity:1;">
  <use xlink:href="#glyph0-1" x="190.304688" y="204.893555"/>
</g>
<path style="fill:none;stroke-width:1.2;stroke-linecap:butt;stroke-linejoin:miter;stroke:rgb(0%,0%,100%);stroke-opacity:1;stroke-miterlimit:10;" d="M 218.796875 166.292969 L 229.027344 173.648438 "/>
<path style="fill:none;stroke-width:1.2;stroke-linecap:butt;stroke-linejoin:miter;stroke:rgb(0%,0%,0%);stroke-opacity:1;stroke-miterlimit:10;" d="M 229.027344 173.648438 L 239.257812 181.007812 "/>
<path style="fill:none;stroke-width:1.2;stroke-linecap:butt;stroke-linejoin:miter;stroke:rgb(0%,0%,0%);stroke-opacity:1;stroke-miterlimit:10;" d="M 221.3125 141.210938 L 220.054688 153.75 "/>
<path style="fill:none;stroke-width:1.2;stroke-linecap:butt;stroke-linejoin:miter;stroke:rgb(0%,0%,100%);stroke-opacity:1;stroke-miterlimit:10;" d="M 220.054688 153.75 L 218.796875 166.292969 "/>
<path style=" stroke:none;fill-rule:nonzero;fill:rgb(100%,100%,100%);fill-opacity:1;" d="M 215.796875 160.792969 L 222.796875 160.792969 L 222.796875 171.792969 L 215.796875 171.792969 Z M 215.796875 160.792969 "/>
<g style="fill:rgb(0%,0%,100%);fill-opacity:1;">
  <use xlink:href="#glyph0-1" x="215.796875" y="169.456055"/>
</g>
<path style="fill:none;stroke-width:1.2;stroke-linecap:butt;stroke-linejoin:miter;stroke:rgb(0%,0%,0%);stroke-opacity:1;stroke-miterlimit:10;" d="M 239.257812 181.007812 L 262.234375 170.648438 "/>
<path style="fill:none;stroke-width:1.2;stroke-linecap:butt;stroke-linejoin:miter;stroke:rgb(0%,0%,0%);stroke-opacity:1;stroke-miterlimit:10;" d="M 262.234375 170.648438 L 263.492188 158.109375 "/>
<path style="fill:none;stroke-width:1.2;stroke-linecap:butt;stroke-linejoin:miter;stroke:rgb(100%,0%,0%);stroke-opacity:1;stroke-miterlimit:10;" d="M 263.492188 158.109375 L 264.75 145.570312 "/>
<path style="fill:none;stroke-width:1.2;stroke-linecap:butt;stroke-linejoin:miter;stroke:rgb(100%,0%,0%);stroke-opacity:1;stroke-miterlimit:10;" d="M 264.75 145.570312 L 254.519531 138.210938 "/>
<path style="fill:none;stroke-width:1.2;stroke-linecap:butt;stroke-linejoin:miter;stroke:rgb(0%,0%,0%);stroke-opacity:1;stroke-miterlimit:10;" d="M 254.519531 138.210938 L 244.289062 130.851562 "/>
<path style=" stroke:none;fill-rule:nonzero;fill:rgb(100%,100%,100%);fill-opacity:1;" d="M 260.75 140.070312 L 268.75 140.070312 L 268.75 151.070312 L 260.75 151.070312 Z M 260.75 140.070312 "/>
<g style="fill:rgb(100%,0%,0%);fill-opacity:1;">
  <use xlink:href="#glyph0-2" x="260.75" y="148.733398"/>
</g>
<path style="fill:none;stroke-width:1.2;stroke-linecap:butt;stroke-linejoin:miter;stroke:rgb(0%,0%,0%);stroke-opacity:1;stroke-miterlimit:10;" d="M 244.289062 130.851562 L 221.3125 141.210938 "/>
<path style="fill:none;stroke-width:1.2;stroke-linecap:butt;stroke-linejoin:miter;stroke:rgb(0%,0%,100%);stroke-opacity:1;stroke-miterlimit:10;" d="M 172.605469 136.882812 L 160.265625 134.320312 "/>
<path style="fill:none;stroke-width:1.2;stroke-linecap:butt;stroke-linejoin:miter;stroke:rgb(0%,0%,0%);stroke-opacity:1;stroke-miterlimit:10;" d="M 160.265625 134.320312 L 147.925781 131.757812 "/>
<path style="fill:none;stroke-width:1.2;stroke-linecap:butt;stroke-linejoin:miter;stroke:rgb(0%,0%,100%);stroke-opacity:1;stroke-miterlimit:10;" d="M 168.933594 142.175781 L 159.0625 140.125 "/>
<path style="fill:none;stroke-width:1.2;stroke-linecap:butt;stroke-linejoin:miter;stroke:rgb(0%,0%,0%);stroke-opacity:1;stroke-miterlimit:10;" d="M 159.0625 140.125 L 149.191406 138.078125 "/>
<path style=" stroke:none;fill-rule:nonzero;fill:rgb(100%,100%,100%);fill-opacity:1;" d="M 169.605469 131.382812 L 176.605469 131.382812 L 176.605469 142.382812 L 169.605469 142.382812 Z M 169.605469 131.382812 "/>
<g style="fill:rgb(0%,0%,100%);fill-opacity:1;">
  <use xlink:href="#glyph0-1" x="169.605469" y="140.045898"/>
</g>
<path style="fill:none;stroke-width:1.2;stroke-linecap:butt;stroke-linejoin:miter;stroke:rgb(0%,0%,0%);stroke-opacity:1;stroke-miterlimit:10;" d="M 147.925781 131.757812 L 141.679688 142.703125 "/>
<path style="fill:none;stroke-width:1.2;stroke-linecap:butt;stroke-linejoin:miter;stroke:rgb(0%,0%,100%);stroke-opacity:1;stroke-miterlimit:10;" d="M 141.679688 142.703125 L 135.429688 153.644531 "/>
<path style="fill:none;stroke-width:1.2;stroke-linecap:butt;stroke-linejoin:miter;stroke:rgb(0%,0%,0%);stroke-opacity:1;stroke-miterlimit:10;" d="M 147.925781 131.757812 L 137.566406 108.78125 "/>
<path style="fill:none;stroke-width:1.2;stroke-linecap:butt;stroke-linejoin:miter;stroke:rgb(0%,0%,100%);stroke-opacity:1;stroke-miterlimit:10;" d="M 135.429688 153.644531 L 122.902344 155.023438 "/>
<path style="fill:none;stroke-width:1.2;stroke-linecap:butt;stroke-linejoin:miter;stroke:rgb(0%,0%,0%);stroke-opacity:1;stroke-miterlimit:10;" d="M 122.902344 155.023438 L 110.375 156.398438 "/>
<path style=" stroke:none;fill-rule:nonzero;fill:rgb(100%,100%,100%);fill-opacity:1;" d="M 132.429688 148.144531 L 139.429688 148.144531 L 139.429688 159.144531 L 132.429688 159.144531 Z M 132.429688 148.144531 "/>
<g style="fill:rgb(0%,0%,100%);fill-opacity:1;">
  <use xlink:href="#glyph0-1" x="132.429688" y="156.807617"/>
</g>
<path style="fill:none;stroke-width:1.2;stroke-linecap:butt;stroke-linejoin:miter;stroke:rgb(0%,0%,0%);stroke-opacity:1;stroke-miterlimit:10;" d="M 110.375 156.398438 L 100.234375 179.472656 "/>
<path style="fill:none;stroke-width:1.2;stroke-linecap:butt;stroke-linejoin:miter;stroke:rgb(0%,0%,0%);stroke-opacity:1;stroke-miterlimit:10;" d="M 100.234375 179.472656 L 87.707031 180.851562 "/>
<path style="fill:none;stroke-width:1.2;stroke-linecap:butt;stroke-linejoin:miter;stroke:rgb(0%,0%,100%);stroke-opacity:1;stroke-miterlimit:10;" d="M 87.707031 180.851562 L 75.179688 182.226562 "/>
<path style="fill:none;stroke-width:1.2;stroke-linecap:butt;stroke-linejoin:miter;stroke:rgb(0%,0%,100%);stroke-opacity:1;stroke-miterlimit:10;" d="M 75.179688 182.226562 L 68.929688 193.171875 "/>
<path style="fill:none;stroke-width:1.2;stroke-linecap:butt;stroke-linejoin:miter;stroke:rgb(0%,0%,0%);stroke-opacity:1;stroke-miterlimit:10;" d="M 68.929688 193.171875 L 62.683594 204.113281 "/>
<path style="fill:none;stroke-width:1.2;stroke-linecap:butt;stroke-linejoin:miter;stroke:rgb(0%,0%,0%);stroke-opacity:1;stroke-miterlimit:10;" d="M 58.226562 163.578125 L 66.703125 172.902344 "/>
<path style="fill:none;stroke-width:1.2;stroke-linecap:butt;stroke-linejoin:miter;stroke:rgb(0%,0%,100%);stroke-opacity:1;stroke-miterlimit:10;" d="M 66.703125 172.902344 L 75.179688 182.226562 "/>
<path style=" stroke:none;fill-rule:nonzero;fill:rgb(100%,100%,100%);fill-opacity:1;" d="M 72.179688 176.726562 L 79.179688 176.726562 L 79.179688 187.726562 L 72.179688 187.726562 Z M 72.179688 176.726562 "/>
<g style="fill:rgb(0%,0%,100%);fill-opacity:1;">
  <use xlink:href="#glyph0-1" x="72.179688" y="185.389648"/>
</g>
<path style="fill:none;stroke-width:1.2;stroke-linecap:butt;stroke-linejoin:miter;stroke:rgb(0%,0%,0%);stroke-opacity:1;stroke-miterlimit:10;" d="M 62.683594 204.113281 L 38.003906 198.992188 "/>
<path style="fill:none;stroke-width:1.2;stroke-linecap:butt;stroke-linejoin:miter;stroke:rgb(0%,0%,0%);stroke-opacity:1;stroke-miterlimit:10;" d="M 38.003906 198.992188 L 35.25 173.9375 "/>
<path style="fill:none;stroke-width:1.2;stroke-linecap:butt;stroke-linejoin:miter;stroke:rgb(0%,0%,0%);stroke-opacity:1;stroke-miterlimit:10;" d="M 35.25 173.9375 L 58.226562 163.578125 "/>
<path style="fill:none;stroke-width:1.2;stroke-linecap:butt;stroke-linejoin:miter;stroke:rgb(0%,0%,0%);stroke-opacity:1;stroke-miterlimit:10;" d="M 137.566406 108.78125 L 152.285156 88.320312 "/>
<path style="fill:none;stroke-width:1.2;stroke-linecap:butt;stroke-linejoin:miter;stroke:rgb(0%,0%,0%);stroke-opacity:1;stroke-miterlimit:10;" d="M 134.222656 103.273438 L 145.996094 86.902344 "/>
<path style="fill:none;stroke-width:1.2;stroke-linecap:butt;stroke-linejoin:miter;stroke:rgb(0%,0%,0%);stroke-opacity:1;stroke-miterlimit:10;" d="M 112.488281 106.265625 L 137.566406 108.78125 "/>
<path style="fill:none;stroke-width:1.2;stroke-linecap:butt;stroke-linejoin:miter;stroke:rgb(0%,0%,0%);stroke-opacity:1;stroke-miterlimit:10;" d="M 152.285156 88.320312 L 141.921875 65.34375 "/>
<path style="fill:none;stroke-width:1.2;stroke-linecap:butt;stroke-linejoin:miter;stroke:rgb(0%,0%,0%);stroke-opacity:1;stroke-miterlimit:10;" d="M 141.921875 65.34375 L 116.84375 62.828125 "/>
<path style="fill:none;stroke-width:1.2;stroke-linecap:butt;stroke-linejoin:miter;stroke:rgb(0%,0%,0%);stroke-opacity:1;stroke-miterlimit:10;" d="M 138.824219 70.992188 L 118.761719 68.980469 "/>
<path style="fill:none;stroke-width:1.2;stroke-linecap:butt;stroke-linejoin:miter;stroke:rgb(0%,0%,0%);stroke-opacity:1;stroke-miterlimit:10;" d="M 116.84375 62.828125 L 102.125 83.289062 "/>
<path style="fill:none;stroke-width:1.2;stroke-linecap:butt;stroke-linejoin:miter;stroke:rgb(0%,0%,0%);stroke-opacity:1;stroke-miterlimit:10;" d="M 102.125 83.289062 L 112.488281 106.265625 "/>
<path style="fill:none;stroke-width:1.2;stroke-linecap:butt;stroke-linejoin:miter;stroke:rgb(0%,0%,0%);stroke-opacity:1;stroke-miterlimit:10;" d="M 108.570312 83.148438 L 116.859375 101.53125 "/>
</g>
</svg>

<svg xmlns="http://www.w3.org/2000/svg" xmlns:xlink="http://www.w3.org/1999/xlink" width="300pt" height="300pt" viewBox="0 0 300 300"><defs><symbol overflow="visible"><path d="M.453 1.594v-7.938h4.5v7.938zm.5-.5h3.5v-6.938h-3.5zm0 0"/></symbol><symbol overflow="visible" id="a"><path d="M.89-6.563H2.08l2.906 5.485v-5.484h.86V0H4.656L1.75-5.484V0H.89zm0 0"/></symbol><symbol overflow="visible" id="b"><path d="M3.547-5.953c-.65 0-1.164.242-1.547.72-.375.48-.563 1.13-.563 1.952 0 .835.188 1.49.563 1.967.383.48.898.72 1.547.72.644 0 1.156-.24 1.53-.72.376-.476.564-1.132.564-1.968 0-.822-.187-1.474-.562-1.954-.375-.477-.887-.72-1.53-.72zm0-.734c.914 0 1.648.312 2.203.937.55.617.828 1.438.828 2.47 0 1.042-.277 1.87-.828 2.483-.555.617-1.29.922-2.203.922-.93 0-1.668-.305-2.22-.922C.774-1.41.5-2.237.5-3.28c0-1.033.273-1.853.828-2.47.55-.625 1.29-.938 2.22-.938zm0 0"/></symbol></defs><g><path fill="#fff" d="M0 0h300v300H0z"/><path d="M167.813 237.172l2.515-25.078M170.328 212.094l-10.23-7.36" stroke-width="1.2" stroke="#000" stroke-miterlimit="10" fill="none"/><path d="M160.098 204.734l-10.23-7.36" stroke-width="1.2" stroke="#00f" stroke-miterlimit="10" fill="none"/><path d="M171.746 205.805l-8.184-5.887" stroke-width="1.2" stroke="#000" stroke-miterlimit="10" fill="none"/><path d="M163.563 199.918l-8.184-5.887M193.305 201.73l-11.49 5.18" stroke-width="1.2" stroke="#00f" stroke-miterlimit="10" fill="none"/><path d="M181.816 206.91l-11.488 5.184" stroke-width="1.2" stroke="#000" stroke-miterlimit="10" fill="none"/><path d="M149.867 197.375l1.258-12.54" stroke-width="1.2" stroke="#00f" stroke-miterlimit="10" fill="none"/><path d="M151.125 184.836l1.258-12.54" stroke-width="1.2" stroke="#000" stroke-miterlimit="10" fill="none"/><path d="M146.867 191.875h7v11h-7zm0 0" fill="#fff"/><use xlink:href="#a" x="146.867" y="200.538" fill="#00f"/><path d="M152.383 172.297l22.976-10.363M152.242 165.855l18.383-8.29" stroke-width="1.2" stroke="#000" stroke-miterlimit="10" fill="none"/><path d="M135.43 153.645l8.476 9.328" stroke-width="1.2" stroke="#00f" stroke-miterlimit="10" fill="none"/><path d="M143.906 162.973l8.477 9.324M175.36 161.934l20.46 14.718M175.36 161.934l-1.376-12.528" stroke-width="1.2" stroke="#000" stroke-miterlimit="10" fill="none"/><path d="M173.984 149.406l-1.38-12.523" stroke-width="1.2" stroke="#00f" stroke-miterlimit="10" fill="none"/><path d="M195.82 176.652l-1.257 12.54" stroke-width="1.2" stroke="#000" stroke-miterlimit="10" fill="none"/><path d="M194.563 189.19l-1.258 12.54" stroke-width="1.2" stroke="#00f" stroke-miterlimit="10" fill="none"/><path d="M189.668 178.57l-1.004 10.032" stroke-width="1.2" stroke="#000" stroke-miterlimit="10" fill="none"/><path d="M188.664 188.602l-1.008 10.03" stroke-width="1.2" stroke="#00f" stroke-miterlimit="10" fill="none"/><path d="M195.82 176.652l11.49-5.18" stroke-width="1.2" stroke="#000" stroke-miterlimit="10" fill="none"/><path d="M207.31 171.473l11.487-5.18" stroke-width="1.2" stroke="#00f" stroke-miterlimit="10" fill="none"/><path d="M190.305 196.23h7v11h-7zm0 0" fill="#fff"/><use xlink:href="#a" x="190.305" y="204.894" fill="#00f"/><path d="M218.797 166.293l10.23 7.355" stroke-width="1.2" stroke="#00f" stroke-miterlimit="10" fill="none"/><path d="M229.027 173.648l10.23 7.36M221.313 141.21l-1.258 12.54" stroke-width="1.2" stroke="#000" stroke-miterlimit="10" fill="none"/><path d="M220.055 153.75l-1.258 12.543" stroke-width="1.2" stroke="#00f" stroke-miterlimit="10" fill="none"/><path d="M215.797 160.793h7v11h-7zm0 0" fill="#fff"/><use xlink:href="#a" x="215.797" y="169.456" fill="#00f"/><path d="M239.258 181.008l22.976-10.36M262.234 170.648l1.258-12.54" stroke-width="1.2" stroke="#000" stroke-miterlimit="10" fill="none"/><path d="M263.492 158.11l1.258-12.54M264.75 145.57l-10.23-7.36" stroke-width="1.2" stroke="#f00" stroke-miterlimit="10" fill="none"/><path d="M254.52 138.21l-10.23-7.358" stroke-width="1.2" stroke="#000" stroke-miterlimit="10" fill="none"/><path d="M260.75 140.07h8v11h-8zm0 0" fill="#fff"/><use xlink:href="#b" x="260.75" y="148.733" fill="#f00"/><path d="M244.29 130.852l-22.977 10.36" stroke-width="1.2" stroke="#000" stroke-miterlimit="10" fill="none"/><path d="M172.605 136.883l-12.34-2.563" stroke-width="1.2" stroke="#00f" stroke-miterlimit="10" fill="none"/><path d="M160.266 134.32l-12.34-2.562" stroke-width="1.2" stroke="#000" stroke-miterlimit="10" fill="none"/><path d="M168.934 142.176l-9.87-2.05" stroke-width="1.2" stroke="#00f" stroke-miterlimit="10" fill="none"/><path d="M159.063 140.125l-9.872-2.047" stroke-width="1.2" stroke="#000" stroke-miterlimit="10" fill="none"/><path d="M169.605 131.383h7v11h-7zm0 0" fill="#fff"/><use xlink:href="#a" x="169.605" y="140.046" fill="#00f"/><path d="M147.926 131.758l-6.246 10.945" stroke-width="1.2" stroke="#000" stroke-miterlimit="10" fill="none"/><path d="M141.68 142.703l-6.25 10.942" stroke-width="1.2" stroke="#00f" stroke-miterlimit="10" fill="none"/><path d="M147.926 131.758l-10.36-22.977" stroke-width="1.2" stroke="#000" stroke-miterlimit="10" fill="none"/><path d="M135.43 153.645l-12.528 1.378" stroke-width="1.2" stroke="#00f" stroke-miterlimit="10" fill="none"/><path d="M122.902 155.023l-12.527 1.375" stroke-width="1.2" stroke="#000" stroke-miterlimit="10" fill="none"/><path d="M132.43 148.145h7v11h-7zm0 0" fill="#fff"/><use xlink:href="#a" x="132.43" y="156.808" fill="#00f"/><path d="M110.375 156.398l-10.14 23.075M100.234 179.473l-12.527 1.38" stroke-width="1.2" stroke="#000" stroke-miterlimit="10" fill="none"/><path d="M87.707 180.852l-12.527 1.375M75.18 182.227l-6.25 10.945" stroke-width="1.2" stroke="#00f" stroke-miterlimit="10" fill="none"/><path d="M68.93 193.172l-6.246 10.94M58.227 163.578l8.476 9.324" stroke-width="1.2" stroke="#000" stroke-miterlimit="10" fill="none"/><path d="M66.703 172.902l8.477 9.325" stroke-width="1.2" stroke="#00f" stroke-miterlimit="10" fill="none"/><path d="M72.18 176.727h7v11h-7zm0 0" fill="#fff"/><use xlink:href="#a" x="72.18" y="185.39" fill="#00f"/><path d="M62.684 204.113l-24.68-5.12M38.004 198.992l-2.754-25.054M35.25 173.938l22.977-10.36M137.566 108.78l14.72-20.46M134.223 103.273l11.773-16.37M112.488 106.266l25.078 2.515M152.285 88.32l-10.363-22.976M141.922 65.344l-25.078-2.516M138.824 70.992l-20.062-2.012M116.844 62.828l-14.72 20.46M102.125 83.29l10.363 22.976M108.57 83.148l8.29 18.383" stroke-width="1.2" stroke="#000" stroke-miterlimit="10" fill="none"/></g></svg>
